X:1
T:Title
%%score { ( 1 3 ) | ( 2 4 ) }
L:1/8
M:6/8
K:F
V:1 treble nm="Grand Piano"
V:3 treble 
V:2 bass 
V:4 bass 
V:1
 z3 z2[Q:1/4=78] C | CDE FGA | c3 z3 | [FA][GB][FA] [FA]2 [CG] |[M:5/8] [CF]-[CF]- [CF]3 | %5
[M:1/8] [CE] |[M:3/4] [B,D][CE] [CF]G AB | A3 F2 A | G=B cd AB |[M:5/8] [Ec]-[Ec]- [Ec]3 | %10
[M:1/8] [Ec] |[M:3/4] [Ec][CG] [CA][EB] [Ec][Ed] | c3 A2 A | [FA]D E F2 D | E6 | CD EF GA | %16
 c3 d2 [Be] | [Af][CFc] [DFB][FA] [FA][EG] |[M:5/8] F-F- F3 |[M:1/8] c |[M:3/4] c4 z2 | %21
 cc =B_B [Gc][Gd] | [Be]4 z2 | [Af]2 [Bd] [Ac]2 c | cA GF GA | cd _e d2 [B=e] | %26
 [Af][CFc] [DFB] [CFA]2 [B,EG] |[M:5/8] [A,F]-[A,F]- [A,F]3 |] %28
V:2
 z6 | z =B,_B, A,[G,CE][F,CF] | F3 z3 | [C,C][C,C][C,C] [C,C]2 [C,B,] | %4
[M:5/8] [F,A,]-[F,A,]- [F,A,]3 |[M:1/8] [A,,F,] | %6
[M:3/4] [B,,F,][B,,G,] [A,,F,][C,E,C] [C,F,C][C,G,C] | [F,C]3 [F,A,C]2[K:treble] [F,CF] | %8
 [G,=B,F][G,DF] [G,CE][G,B,F] [G,CF][G,DF] |[M:5/8][K:bass] [C,C]-[C,C]- [C,C]3 |[M:1/8] [C,G,] | %11
[M:3/4] [C,G,][C,E,] [C,F,][C,G,] [C,A,][C,B,] | [F,A,F]3 [F,CF]2 [F,CF] | %13
 [D,D][D,F,] [D,G,D] [D,A,D]2 [F,A,] | [A,^C]3 .[G,B,]3 | z =B, _B,A,[K:treble] [G,CE][F,CF] | %16
 [A,_EF]3 [B,DF]2 [G,C] | [F,C]A,, B,,[C,C] [C,C][C,B,] |[M:5/8] [F,A,]-[F,A,]- [F,A,]3 | %19
[M:1/8] [F,A,F] |[M:3/4] [F,A,F]3 [F,A,][K:treble] [F,B,F][F,CF] | %21
 [A,CF][A,CF] [_A,DF][K:bass][G,CE] [E,C][D,C] | [C,C]E, G,C [B,C][G,C] | %23
 [F,C]2 [F,F] [F,F]2 [F,A,F] | [F,A,F][F,CF] [F,B,F][F,A,][K:treble] [F,B,F][F,CF] | %25
 [F,A,F][F,B,F] [F,CF] [B,F]2[K:bass] [G,C] | [F,C]A,, B,, C,2 C, |[M:5/8] F,-F,- F,3 |] %28
V:3
 x6 | x6 | z2 C [DFB]2 [DF] | x6 |[M:5/8] x5 |[M:1/8] x |[M:3/4] x6 | x6 | x6 |[M:5/8] x5 | %10
[M:1/8] x |[M:3/4] x6 | x6 | x6 | z2 z C2 C | x6 | x6 | x6 |[M:5/8] x5 |[M:1/8] x | %20
[M:3/4] z2 z F dA | x6 | z C .C2 [Gd][Bc] | x6 | x6 | x6 | x6 |[M:5/8] x5 |] %28
V:4
 x6 | x6 | [F,A,]2 A,, B,,2 B,, | x6 |[M:5/8] x5 |[M:1/8] x |[M:3/4] x6 | x5[K:treble] x | x6 | %9
[M:5/8][K:bass] x5 |[M:1/8] x |[M:3/4] x6 | x6 | x6 | x6 | x4[K:treble] x2 | x6 | x6 |[M:5/8] x5 | %19
[M:1/8] x |[M:3/4] x4[K:treble] x2 | x3[K:bass] x3 | x6 | x6 | x4[K:treble] x2 | x5[K:bass] x | %26
 x6 |[M:5/8] x5 |] %28

